!!!OTL: Sanct Wolfgangs - Ruf
!!!ARE: Europa, Mitteleuropa, Deutschland
!!!SCT: A0615B
!!!YEM: Copyright 1995, estate of Helmut Schaffrath.
**kern
*ICvox
*Ivox
*M4/2
*k[]
*C:
{2c
=1
2c
2d
2c
4c
4G
=2
2c
2e
2.d}
{4e
=3
2f
4g
4f
4e
4d
2c
=4
1d
2r}
{2c
=5
2d
2e
4f
4g
2a
=6
2g
4f
4e
2d}
{2f
=7
4e
4d
2c
4d
4c
2B
=8
1.c}
==
!!!AGN: Romanze, Ballade, Lied, religioeses Lied
!! Beuttner 1602 II No. 31
!!!ONB: ESAC (Essen Associative Code) Database: ALTDEU
!!!AMT: simple quadruple
!!!AIN: vox
!!!EED: Helmut Schaffrath
!!!EEV: 1.0
*-
